public/website-favicon/projects/favicon.svg

<?xml version="1.0" encoding="UTF-8" standalone="no"?>
<!DOCTYPE svg PUBLIC "-//W3C//DTD SVG 1.1//EN" "http://www.w3.org/Graphics/SVG/1.1/DTD/svg11.dtd">
<!-- Created with Vectornator (http://vectornator.io/) -->
<svg height="100%" stroke-miterlimit="10" style="fill-rule:nonzero;clip-rule:evenodd;stroke-linecap:round;stroke-linejoin:round;" version="1.1" viewBox="0 0 1060.54 1060.54" width="100%" xml:space="preserve" xmlns="http://www.w3.org/2000/svg" xmlns:vectornator="http://vectornator.io" xmlns:xlink="http://www.w3.org/1999/xlink">
<defs>
<linearGradient gradientTransform="matrix(0.849609 0 0 0.849609 79.7476 79.7476)" gradientUnits="userSpaceOnUse" id="LinearGradient" x1="166.229" x2="866.993" y1="801.982" y2="149.564">
<stop offset="0.001" stop-color="#36d2ff"/>
<stop offset="1" stop-color="#38ff58"/>
</linearGradient>
<linearGradient gradientTransform="matrix(0.849609 0 0 0.849609 79.7476 79.7476)" gradientUnits="userSpaceOnUse" id="LinearGradient_2" x1="6.456" x2="1054.08" y1="692.102" y2="692.102">
<stop offset="0.001" stop-color="#36d2ff"/>
<stop offset="1" stop-color="#38ff58"/>
</linearGradient>
<linearGradient gradientTransform="matrix(0.849609 0 0 0.849609 79.7476 79.7476)" gradientUnits="userSpaceOnUse" id="LinearGradient_3" x1="6.456" x2="1054.08" y1="692.102" y2="692.102">
<stop offset="0.001" stop-color="#36d2ff"/>
<stop offset="1" stop-color="#38ff58"/>
</linearGradient>
<linearGradient gradientTransform="matrix(0.849609 0 0 0.849609 79.7476 79.7476)" gradientUnits="userSpaceOnUse" id="LinearGradient_4" x1="5.314" x2="1052.94" y1="463.128" y2="463.128">
<stop offset="0.001" stop-color="#36d2ff"/>
<stop offset="1" stop-color="#38ff58"/>
</linearGradient>
<linearGradient gradientTransform="matrix(0.849609 0 0 0.849609 79.7476 79.7476)" gradientUnits="userSpaceOnUse" id="LinearGradient_5" x1="-276.928" x2="770.698" y1="988.178" y2="988.178">
<stop offset="0.001" stop-color="#36d2ff"/>
<stop offset="1" stop-color="#38ff58"/>
</linearGradient>
<linearGradient gradientTransform="matrix(0.849609 0 0 0.849609 79.7476 79.7476)" gradientUnits="userSpaceOnUse" id="LinearGradient_6" x1="261.96" x2="1309.59" y1="985.824" y2="985.824">
<stop offset="0.001" stop-color="#36d2ff"/>
<stop offset="1" stop-color="#38ff58"/>
</linearGradient>
</defs>
<g id="Layer-1" vectornator:layerName="Layer 1">
<g opacity="1" vectornator:layerName="Group 4">
<path d="M95.27 530.27C95.27 290.026 290.026 95.27 530.27 95.27C770.514 95.27 965.27 290.026 965.27 530.27C965.27 770.514 770.514 965.27 530.27 965.27C290.026 965.27 95.27 770.514 95.27 530.27Z" fill="url(#LinearGradient)" fill-rule="nonzero" opacity="1" stroke="#007063" stroke-linecap="round" stroke-linejoin="round" stroke-width="40" vectornator:layerName="path"/>
<g opacity="1" vectornator:layerName="path">
<clipPath clip-rule="nonzero" id="ClipPath">
<path d="M95.27 530.27C95.27 290.026 290.026 95.27 530.27 95.27C770.514 95.27 965.27 290.026 965.27 530.27C965.27 770.514 770.514 965.27 530.27 965.27C290.026 965.27 95.27 770.514 95.27 530.27Z"/>
</clipPath>
<g clip-path="url(#ClipPath)">
<path d="M527.376 28.2205C339.029 29.0421 178.633 146.761 114.382 312.321C97.9701 374.923 88.0415 440.162 85.7331 507.359C86.135 512.581 86.4927 517.819 87.0687 522.991C86.5207 523.27 86.0008 523.598 85.4545 523.881C85.3771 528.739 85.2327 533.578 85.2327 538.455C85.2327 862.484 258.539 1145.8 517.364 1301.47C518.253 1300.94 519.204 1300.51 520.09 1299.97C524.452 1302.56 528.984 1304.86 533.441 1307.31C797.663 1152.95 975.304 866.544 975.304 538.455C975.304 537.394 975.253 536.345 975.253 535.285C973.596 534.296 972.024 533.192 970.351 532.224C972.288 517.665 973.299 502.834 973.8 487.888C970.784 434.084 963.044 381.56 950.886 330.735C891.234 154.176 723.981 27.3641 527.376 28.2205Z" fill="url(#LinearGradient_2)" fill-rule="nonzero" opacity="0.332" stroke="#007063" stroke-linecap="round" stroke-linejoin="round" stroke-width="40" vectornator:layerName="path"/>
<g opacity="1" vectornator:layerName="path">
<path d="M527.376 28.2205C339.029 29.0421 178.633 146.761 114.382 312.321C97.9701 374.923 88.0415 440.162 85.7331 507.359C86.135 512.581 86.4927 517.819 87.0687 522.991C86.5207 523.27 86.0008 523.598 85.4545 523.881C85.3771 528.739 85.2327 533.578 85.2327 538.455C85.2327 862.484 258.539 1145.8 517.364 1301.47C518.253 1300.94 519.204 1300.51 520.09 1299.97C524.452 1302.56 528.984 1304.86 533.441 1307.31C797.663 1152.95 975.304 866.544 975.304 538.455C975.304 537.394 975.253 536.345 975.253 535.285C973.596 534.296 972.024 533.192 970.351 532.224C972.288 517.665 973.299 502.834 973.8 487.888C970.784 434.084 963.044 381.56 950.886 330.735C891.234 154.176 723.981 27.3641 527.376 28.2205Z" fill="url(#LinearGradient_3)" fill-rule="nonzero" opacity="1" stroke="#007063" stroke-linecap="round" stroke-linejoin="round" stroke-width="40" vectornator:layerName="path"/>
<g opacity="1" vectornator:layerName="path">
<clipPath clip-rule="nonzero" id="ClipPath_2">
<path d="M527.376 28.2205C339.029 29.0421 178.633 146.761 114.382 312.321C97.9701 374.923 88.0415 440.162 85.7331 507.359C86.135 512.581 86.4927 517.819 87.0687 522.991C86.5207 523.27 86.0008 523.598 85.4545 523.881C85.3771 528.739 85.2327 533.578 85.2327 538.455C85.2327 862.484 258.539 1145.8 517.364 1301.47C518.253 1300.94 519.204 1300.51 520.09 1299.97C524.452 1302.56 528.984 1304.86 533.441 1307.31C797.663 1152.95 975.304 866.544 975.304 538.455C975.304 537.394 975.253 536.345 975.253 535.285C973.596 534.296 972.024 533.192 970.351 532.224C972.288 517.665 973.299 502.834 973.8 487.888C970.784 434.084 963.044 381.56 950.886 330.735C891.234 154.176 723.981 27.3641 527.376 28.2205Z"/>
</clipPath>
<g clip-path="url(#ClipPath_2)">
<path d="M84.2667 475.165C83.1962 229.38 281.576 29.2647 527.36 28.1933C773.144 27.122 973.265 225.502 974.335 471.287C975.406 717.071 777.025 917.186 531.239 918.259C285.454 919.329 85.3389 720.95 84.2667 475.165Z" fill="url(#LinearGradient_4)" fill-rule="nonzero" opacity="1" stroke="#007063" stroke-linecap="round" stroke-linejoin="round" stroke-width="40" vectornator:layerName="Oval 1"/>
<path d="M-155.529 921.251C-156.6 675.467 41.7794 475.35 287.564 474.279C533.349 473.209 733.465 671.588 734.536 917.372C735.608 1163.16 537.227 1363.28 291.442 1364.35C45.6579 1365.42-154.458 1167.04-155.529 921.251Z" fill="url(#LinearGradient_5)" fill-rule="nonzero" opacity="1" stroke="#007063" stroke-linecap="round" stroke-linejoin="round" stroke-width="40" vectornator:layerName="Oval 2"/>
<path d="M302.316 919.255C301.245 673.471 499.625 473.356 745.409 472.283C991.192 471.213 1191.32 669.592 1192.39 915.377C1193.46 1161.16 995.074 1361.27 749.289 1362.34C503.503 1363.42 303.388 1165.04 302.316 919.255Z" fill="url(#LinearGradient_6)" fill-rule="nonzero" opacity="1" stroke="#007063" stroke-linecap="round" stroke-linejoin="round" stroke-width="40" vectornator:layerName="Oval 3"/>
</g>
</g>
</g>
</g>
</g>
</g>
<path d="M95.27 530.27C95.27 290.026 290.026 95.27 530.27 95.27C770.514 95.27 965.27 290.026 965.27 530.27C965.27 770.514 770.514 965.27 530.27 965.27C290.026 965.27 95.27 770.514 95.27 530.27Z" fill="none" opacity="1" stroke="#007063" stroke-linecap="round" stroke-linejoin="round" stroke-width="40" vectornator:layerName="Oval 1"/>
</g>
</svg>

<svg xmlns="http://www.w3.org/2000/svg" xmlns:vectornator="http://vectornator.io" xml:space="preserve" stroke-miterlimit="10" style="fill-rule:nonzero;clip-rule:evenodd;stroke-linecap:round;stroke-linejoin:round" viewBox="0 0 1060.54 1060.54"><defs><linearGradient id="a" x1="166.229" x2="866.993" y1="801.982" y2="149.564" gradientTransform="matrix(.8496 0 0 .8496 79.748 79.748)" gradientUnits="userSpaceOnUse"><stop offset=".001" stop-color="#36d2ff"/><stop offset="1" stop-color="#38ff58"/></linearGradient><linearGradient id="c" x1="6.456" x2="1054.08" y1="692.102" y2="692.102" gradientTransform="matrix(.8496 0 0 .8496 79.748 79.748)" gradientUnits="userSpaceOnUse"><stop offset=".001" stop-color="#36d2ff"/><stop offset="1" stop-color="#38ff58"/></linearGradient><linearGradient id="d" x1="6.456" x2="1054.08" y1="692.102" y2="692.102" gradientTransform="matrix(.8496 0 0 .8496 79.748 79.748)" gradientUnits="userSpaceOnUse"><stop offset=".001" stop-color="#36d2ff"/><stop offset="1" stop-color="#38ff58"/></linearGradient><linearGradient id="f" x1="5.314" x2="1052.94" y1="463.128" y2="463.128" gradientTransform="matrix(.8496 0 0 .8496 79.748 79.748)" gradientUnits="userSpaceOnUse"><stop offset=".001" stop-color="#36d2ff"/><stop offset="1" stop-color="#38ff58"/></linearGradient><linearGradient id="g" x1="-276.928" x2="770.698" y1="988.178" y2="988.178" gradientTransform="matrix(.8496 0 0 .8496 79.748 79.748)" gradientUnits="userSpaceOnUse"><stop offset=".001" stop-color="#36d2ff"/><stop offset="1" stop-color="#38ff58"/></linearGradient><linearGradient id="h" x1="261.96" x2="1309.59" y1="985.824" y2="985.824" gradientTransform="matrix(.8496 0 0 .8496 79.748 79.748)" gradientUnits="userSpaceOnUse"><stop offset=".001" stop-color="#36d2ff"/><stop offset="1" stop-color="#38ff58"/></linearGradient></defs><g vectornator:layerName="Layer 1"><g vectornator:layerName="Group 4"><path vectornator:layerName="path" fill="url(#a)" stroke="#007063" stroke-width="40" d="M95.27 530.27c0-240.244 194.756-435 435-435s435 194.756 435 435-194.756 435-435 435-435-194.756-435-435Z"/><g vectornator:layerName="path"><clipPath id="b" clip-rule="nonzero"><path d="M95.27 530.27c0-240.244 194.756-435 435-435s435 194.756 435 435-194.756 435-435 435-435-194.756-435-435Z"/></clipPath><g clip-path="url(#b)"><path vectornator:layerName="path" fill="url(#c)" stroke="#007063" stroke-width="40" d="M527.376 28.22c-188.347.822-348.743 118.541-412.994 284.101-16.412 62.602-26.34 127.841-28.649 195.038.402 5.222.76 10.46 1.336 15.632-.548.279-1.068.607-1.615.89-.077 4.858-.221 9.697-.221 14.574 0 324.029 173.306 607.345 432.131 763.015.889-.53 1.84-.96 2.726-1.5 4.362 2.59 8.894 4.89 13.351 7.34 264.222-154.36 441.863-440.766 441.863-768.855 0-1.061-.051-2.11-.051-3.17-1.657-.989-3.229-2.093-4.902-3.061 1.937-14.559 2.948-29.39 3.449-44.336-3.016-53.804-10.756-106.328-22.914-157.153-59.652-176.559-226.905-303.37-423.51-302.514Z" opacity=".332"/><g vectornator:layerName="path"><path vectornator:layerName="path" fill="url(#d)" stroke="#007063" stroke-width="40" d="M527.376 28.22c-188.347.822-348.743 118.541-412.994 284.101-16.412 62.602-26.34 127.841-28.649 195.038.402 5.222.76 10.46 1.336 15.632-.548.279-1.068.607-1.615.89-.077 4.858-.221 9.697-.221 14.574 0 324.029 173.306 607.345 432.131 763.015.889-.53 1.84-.96 2.726-1.5 4.362 2.59 8.894 4.89 13.351 7.34 264.222-154.36 441.863-440.766 441.863-768.855 0-1.061-.051-2.11-.051-3.17-1.657-.989-3.229-2.093-4.902-3.061 1.937-14.559 2.948-29.39 3.449-44.336-3.016-53.804-10.756-106.328-22.914-157.153-59.652-176.559-226.905-303.37-423.51-302.514Z"/><g vectornator:layerName="path"><clipPath id="e" clip-rule="nonzero"><path d="M527.376 28.22c-188.347.822-348.743 118.541-412.994 284.101-16.412 62.602-26.34 127.841-28.649 195.038.402 5.222.76 10.46 1.336 15.632-.548.279-1.068.607-1.615.89-.077 4.858-.221 9.697-.221 14.574 0 324.029 173.306 607.345 432.131 763.015.889-.53 1.84-.96 2.726-1.5 4.362 2.59 8.894 4.89 13.351 7.34 264.222-154.36 441.863-440.766 441.863-768.855 0-1.061-.051-2.11-.051-3.17-1.657-.989-3.229-2.093-4.902-3.061 1.937-14.559 2.948-29.39 3.449-44.336-3.016-53.804-10.756-106.328-22.914-157.153-59.652-176.559-226.905-303.37-423.51-302.514Z"/></clipPath><g stroke="#007063" stroke-width="40" clip-path="url(#e)"><path vectornator:layerName="Oval 1" fill="url(#f)" d="M84.267 475.165C83.197 229.38 281.576 29.265 527.36 28.193c245.784-1.071 445.905 197.309 446.975 443.094 1.071 245.784-197.31 445.899-443.096 446.972-245.785 1.07-445.9-197.309-446.972-443.094Z"/><path vectornator:layerName="Oval 2" fill="url(#g)" d="M-155.529 921.251C-156.6 675.467 41.779 475.35 287.564 474.279c245.785-1.07 445.901 197.309 446.972 443.093 1.072 245.788-197.309 445.908-443.094 446.978-245.784 1.07-445.9-197.31-446.971-443.099Z"/><path vectornator:layerName="Oval 3" fill="url(#h)" d="M302.316 919.255c-1.071-245.784 197.309-445.899 443.093-446.972 245.783-1.07 445.911 197.309 446.981 443.094 1.07 245.783-197.316 445.893-443.101 446.963-245.786 1.08-445.901-197.3-446.973-443.085Z"/></g></g></g></g></g></g><path vectornator:layerName="Oval 1" fill="none" stroke="#007063" stroke-width="40" d="M95.27 530.27c0-240.244 194.756-435 435-435s435 194.756 435 435-194.756 435-435 435-435-194.756-435-435Z"/></g></svg>
